X: 1
P: The Minstrel Boy
C: from Bobby Brown "The Island Fling"
C: arr. T. Traub 8-23-2004
R: Reel
M: 2/4
L: 1/8
K: A
|: E2|"A"A3 B|dc BA|"A"c2 "C#m"e2|"F#m"a2 ga|"D"f2 "A"e2|"A"c>d "C#m"ec|"E"B4|"A"A2 :|
e2|"F#m"a2 "C#m"g2|"D"f2 ga|"E"g2 "B7"f2|"E"e2 e2|"F#m"f2 c2|c2 e2|"D"f3 g|"A"a2 "E" E2||
"A"A3 B|dc BA|"A"c2 "C#m"e2|"F#m"a2 ga|"D"f2 "A"e2|"A"c>d "C#m"ec|"E"B4|"A"A2 |]
